src/home/img/composer.svg

<svg height="411" viewBox="0 0 1124 411" width="1124" xmlns="http://www.w3.org/2000/svg" xmlns:xlink="http://www.w3.org/1999/xlink"><linearGradient id="a" x1="50.007%" x2="50.007%" y1="-141.4%" y2="-47.015%"><stop offset="0" stop-color="#2a6cbe"/><stop offset=".38688" stop-color="#2062bc"/><stop offset=".49182" stop-color="#1f5fbc"/><stop offset=".66583" stop-color="#1c5abd"/><stop offset=".85354" stop-color="#1956bc"/><stop offset="1" stop-color="#1851be"/></linearGradient><g fill="none" fill-rule="evenodd"><path d="m0 0h1124v411h-1124z" fill="#fff"/><g fill="#8792a2" opacity=".24"><rect height="24" rx="7" width="26" x="21" y="75"/><rect height="24" rx="7" width="26" x="85" y="75"/><rect height="24" rx="7" width="26" x="149" y="75"/><rect height="24" rx="7" width="26" x="213" y="75"/><rect height="24" rx="7" width="26" x="277" y="75"/><rect height="24" rx="7" width="26" x="341" y="75"/><rect height="24" rx="7" width="26" x="404" y="75"/><rect height="24" rx="7" width="26" x="468" y="75"/></g><g transform="translate(846.93 63)"><path d="m113.070846 0h127v42h-127c-2.761424 0-5-2.2385763-5-5v-32c0-2.76142375 2.238576-5 5-5z" fill="url(#a)"/><rect fill="#5c84d1" height="10" rx="5" width="16" x="134.071" y="16"/><rect fill="#1851be" height="10" rx="3" width="9" x="249.071" y="16"/><rect fill="#5c84d1" height="9" rx="4.5" width="58" x="160.071" y="16"/><rect height="41" rx="5" stroke="#8792a2" stroke-opacity=".24" width="97" x=".5" y=".545"/><rect fill="#8792a2" height="10" opacity=".176" rx="5" width="52" x="32.071" y="16"/><rect fill="#8792a2" height="10" opacity=".376" rx="5" width="14" x="13.071" y="16"/><path d="m240.070846 0h21c2.761424 0 5 2.23857625 5 5v32c0 2.7614237-2.238576 5-5 5h-21z" fill="url(#a)" opacity=".262"/></g><rect fill="#8792a2" height="28" opacity=".241" rx="14" width="430" x="21" y="20"/><g transform="translate(21 126)"><path d="m7.6916556.5c-2.36296752 0-3.35751908.19205677-4.38639328.74230471-.89064354.47632138-1.58663623 1.17231407-2.06295761 2.06295761-.55024794 1.0288742-.74230471 2.02342576-.74230471 4.38639328v208.6166884c0 2.362968.19205677 3.357519.74230471 4.386394.47632138.890643 1.17231407 1.586636 2.06295761 2.062957 1.0288742.550248 2.02342576.742305 4.38639328.742305h1077.6166844c2.36297 0 3.35752-.192057 4.3864-.742305.89064-.476321 1.58663-1.172314 2.06296-2.062957.55024-1.028875.7423-2.023426.7423-4.386394v-208.6166884c0-2.36296752-.19206-3.35751908-.7423-4.38639328-.47633-.89064354-1.17232-1.58663623-2.06296-2.06295761-1.02888-.55024794-2.02343-.74230471-4.3864-.74230471z" stroke="#8792a2" stroke-opacity=".24"/><g fill="#8792a2"><rect height="14" opacity=".241" rx="7" width="313.826" x="10" y="20"/><rect height="14" opacity=".42" rx="7" width="106.601" x="333.788" y="20"/><rect height="14" opacity=".42" rx="7" width="106.601" x="450.352" y="19"/><rect height="14" opacity=".42" rx="7" width="398.509" x="566.916" y="19"/><rect height="8" opacity=".178" rx="3" width="66.393" x="1014.716" y="18"/><rect height="14" opacity=".241" rx="7" width="462.27" x="10" y="48"/><rect height="14" opacity=".241" rx="7" width="151.433" x="482.233" y="48"/><rect height="14" opacity=".241" rx="7" width="57.784" x="643.629" y="48"/><rect height="14" opacity=".241" rx="7" width="254.049" x="711.376" y="48"/><rect height="14" opacity=".241" rx="7" width="55.791" x="51.843" y="76"/><rect height="14" opacity=".241" rx="7" width="152.43" x="117.597" y="76"/><rect height="14" opacity=".241" rx="7" width="111.582" x="51.843" y="132"/><rect height="14" opacity=".241" rx="7" width="185.307" x="51.843" y="104"/><rect height="8" opacity=".441" rx="4" width="11.955" x="29.925" y="79"/><rect height="8" opacity=".441" rx="4" width="11.955" x="29.925" y="135"/><rect height="8" opacity=".441" rx="4" width="11.955" x="29.925" y="107"/><rect height="14" opacity=".241" rx="7" width="284.934" x="10" y="160"/><rect height="14" opacity=".241" rx="7" width="154.422" x="304.897" y="160"/><rect height="14" opacity=".241" rx="7" width="34.87" x="469.281" y="160"/><rect height="14" opacity=".241" rx="7" width="85.679" x="514.114" y="160"/><rect height="14" opacity=".241" rx="7" width="85.679" x="609.756" y="160"/><rect height="14" opacity=".241" rx="7" width="308.844" x="10" y="188"/><rect height="14" opacity=".241" rx="7" width="471.237" x="328.807" y="188"/><rect height="14" opacity=".241" rx="7" width="268.993" x="810.007" y="188"/></g></g><rect fill="#1851be" height="26" opacity=".26" rx="5" width="107" x="21" y="367"/><rect fill="#0b3c9a" height="16" rx="4" width="16" x="105" y="372"/><rect fill="#1851be" height="26" opacity=".26" rx="5" width="106" x="133" y="367"/><rect fill="#0b3c9a" height="16" rx="4" width="16" x="216" y="372"/><rect fill="#eceef0" height="18" rx="9" width="296.308" x="249" y="371"/><g transform="translate(1050 329)"><rect fill="#1851be" height="64" rx="32" transform="matrix(1 0 0 -1 0 64)" width="64"/><path d="m31.997505 15.9992528c1.1045695 0 2 .8954305 2 2v12h13c1.1045695 0 2 .8954305 2 2s-.8954305 2-2 2h-13v13c0 1.1045695-.8954305 2-2 2s-2-.8954305-2-2v-13h-13c-1.1045695 0-2-.8954305-2-2s.8954305-2 2-2h13v-12c0-1.1045695.8954305-2 2-2z" fill="#fff" opacity=".904"/></g></g></svg>

<svg xmlns="http://www.w3.org/2000/svg" width="1124" height="411" viewBox="0 0 1124 411">
  <defs>
    <linearGradient id="composer-a" x1="50.007%" x2="50.007%" y1="-141.4%" y2="-47.015%">
      <stop offset="0%" stop-color="#2A6CBE"/>
      <stop offset="38.688%" stop-color="#2062BC"/>
      <stop offset="49.182%" stop-color="#1F5FBC"/>
      <stop offset="66.583%" stop-color="#1C5ABD"/>
      <stop offset="85.354%" stop-color="#1956BC"/>
      <stop offset="100%" stop-color="#1851BE"/>
    </linearGradient>
    <linearGradient id="composer-b" x1="50.007%" x2="50.007%" y1="-141.4%" y2="-47.015%">
      <stop offset="0%" stop-color="#2A6CBE"/>
      <stop offset="38.688%" stop-color="#2062BC"/>
      <stop offset="49.182%" stop-color="#1F5FBC"/>
      <stop offset="66.583%" stop-color="#1C5ABD"/>
      <stop offset="85.354%" stop-color="#1956BC"/>
      <stop offset="100%" stop-color="#1851BE"/>
    </linearGradient>
  </defs>
  <g fill="none" fill-rule="evenodd">
    <rect width="1124" height="411" fill="#FFF"/>
    <g transform="translate(21 20)">
      <g transform="translate(0 43)">
        <g fill="#8792A2" opacity=".24" transform="translate(0 12)">
          <rect width="26" height="24" rx="7"/>
          <rect width="26" height="24" x="64" rx="7"/>
          <rect width="26" height="24" x="128" rx="7"/>
          <rect width="26" height="24" x="192" rx="7"/>
          <rect width="26" height="24" x="256" rx="7"/>
          <rect width="26" height="24" x="320" rx="7"/>
          <rect width="26" height="24" x="383" rx="7"/>
          <rect width="26" height="24" x="447" rx="7"/>
        </g>
        <g transform="translate(825.93)">
          <path fill="url(#composer-a)" d="M113.070846,0 L240.070846,0 L240.070846,0 L240.070846,42 L113.070846,42 C110.309422,42 108.070846,39.7614237 108.070846,37 L108.070846,5 C108.070846,2.23857625 110.309422,5.07265313e-16 113.070846,0 Z"/>
          <rect width="16" height="10" x="134.071" y="16" fill="#5C84D1" rx="5"/>
          <rect width="9" height="10" x="249.071" y="16" fill="#1851BE" rx="3"/>
          <rect width="58" height="9" x="160.071" y="16" fill="#5C84D1" rx="4.5"/>
          <rect width="97" height="41" x=".5" y=".545" stroke="#8792A2" stroke-opacity=".24" rx="5"/>
          <rect width="52" height="10" x="32.071" y="16" fill="#8792A2" opacity=".176" rx="5"/>
          <rect width="14" height="10" x="13.071" y="16" fill="#8792A2" opacity=".376" rx="5"/>
          <path fill="url(#composer-b)" d="M240.070846,0 L261.070846,0 C263.83227,-5.07265313e-16 266.070846,2.23857625 266.070846,5 L266.070846,37 C266.070846,39.7614237 263.83227,42 261.070846,42 L240.070846,42 L240.070846,42 L240.070846,0 Z" opacity=".262"/>
        </g>
      </g>
      <rect width="430" height="28" fill="#8792A2" opacity=".241" rx="14"/>
    </g>
    <g transform="translate(21 126)">
      <path stroke="#8792A2" stroke-opacity=".24" d="M7.6916556,0.5 C5.32868808,0.5 4.33413652,0.692056765 3.30526232,1.24230471 C2.41461878,1.71862609 1.71862609,2.41461878 1.24230471,3.30526232 C0.692056765,4.33413652 0.5,5.32868808 0.5,7.6916556 L0.5,216.308344 C0.5,218.671312 0.692056765,219.665863 1.24230471,220.694738 C1.71862609,221.585381 2.41461878,222.281374 3.30526232,222.757695 C4.33413652,223.307943 5.32868808,223.5 7.6916556,223.5 L1085.30834,223.5 C1087.67131,223.5 1088.66586,223.307943 1089.69474,222.757695 C1090.58538,222.281374 1091.28137,221.585381 1091.7577,220.694738 C1092.30794,219.665863 1092.5,218.671312 1092.5,216.308344 L1092.5,7.6916556 C1092.5,5.32868808 1092.30794,4.33413652 1091.7577,3.30526232 C1091.28137,2.41461878 1090.58538,1.71862609 1089.69474,1.24230471 C1088.66586,0.692056765 1087.67131,0.5 1085.30834,0.5 L7.6916556,0.5 Z"/>
      <g fill="#8792A2" transform="translate(10 18)">
        <rect width="313.826" height="14" y="2" opacity=".241" rx="7"/>
        <rect width="106.601" height="14" x="323.788" y="2" opacity=".42" rx="7"/>
        <rect width="106.601" height="14" x="440.352" y="1" opacity=".42" rx="7"/>
        <rect width="398.509" height="14" x="556.916" y="1" opacity=".42" rx="7"/>
        <rect width="66.393" height="8" x="1004.716" opacity=".178" rx="3"/>
        <rect width="462.27" height="14" y="30" opacity=".241" rx="7"/>
        <rect width="151.433" height="14" x="472.233" y="30" opacity=".241" rx="7"/>
        <rect width="57.784" height="14" x="633.629" y="30" opacity=".241" rx="7"/>
        <rect width="254.049" height="14" x="701.376" y="30" opacity=".241" rx="7"/>
        <rect width="55.791" height="14" x="41.843" y="58" opacity=".241" rx="7"/>
        <rect width="152.43" height="14" x="107.597" y="58" opacity=".241" rx="7"/>
        <rect width="111.582" height="14" x="41.843" y="114" opacity=".241" rx="7"/>
        <rect width="185.307" height="14" x="41.843" y="86" opacity=".241" rx="7"/>
        <rect width="11.955" height="8" x="19.925" y="61" opacity=".441" rx="4"/>
        <rect width="11.955" height="8" x="19.925" y="117" opacity=".441" rx="4"/>
        <rect width="11.955" height="8" x="19.925" y="89" opacity=".441" rx="4"/>
        <rect width="284.934" height="14" y="142" opacity=".241" rx="7"/>
        <rect width="154.422" height="14" x="294.897" y="142" opacity=".241" rx="7"/>
        <rect width="34.87" height="14" x="459.281" y="142" opacity=".241" rx="7"/>
        <rect width="85.679" height="14" x="504.114" y="142" opacity=".241" rx="7"/>
        <rect width="85.679" height="14" x="599.756" y="142" opacity=".241" rx="7"/>
        <rect width="308.844" height="14" y="170" opacity=".241" rx="7"/>
        <rect width="471.237" height="14" x="318.807" y="170" opacity=".241" rx="7"/>
        <rect width="268.993" height="14" x="800.007" y="170" opacity=".241" rx="7"/>
      </g>
    </g>
    <g transform="translate(21 367)">
      <rect width="107" height="26" fill="#1851BE" opacity=".26" rx="5"/>
      <rect width="16" height="16" x="84" y="5" fill="#0B3C9A" rx="4"/>
      <rect width="106" height="26" x="112" fill="#1851BE" opacity=".26" rx="5"/>
      <rect width="16" height="16" x="195" y="5" fill="#0B3C9A" rx="4"/>
      <rect width="296.308" height="18" x="228" y="4" fill="#ECEEF0" rx="9"/>
    </g>
    <g transform="translate(1050 329)">
      <rect width="64" height="64" fill="#1851BE" rx="32" transform="matrix(1 0 0 -1 0 64)"/>
      <path fill="#FFF" d="M31.997505,15.9992528 C33.1020745,15.9992528 33.997505,16.8946833 33.997505,17.9992528 L33.997505,29.9992528 L46.997505,29.9992528 C48.1020745,29.9992528 48.997505,30.8946833 48.997505,31.9992528 C48.997505,33.1038223 48.1020745,33.9992528 46.997505,33.9992528 L33.997505,33.9992528 L33.997505,46.9992528 C33.997505,48.1038223 33.1020745,48.9992528 31.997505,48.9992528 C30.8929355,48.9992528 29.997505,48.1038223 29.997505,46.9992528 L29.997505,33.9992528 L16.997505,33.9992528 C15.8929355,33.9992528 14.997505,33.1038223 14.997505,31.9992528 C14.997505,30.8946833 15.8929355,29.9992528 16.997505,29.9992528 L29.997505,29.9992528 L29.997505,17.9992528 C29.997505,16.8946833 30.8929355,15.9992528 31.997505,15.9992528 Z" opacity=".904"/>
    </g>
  </g>
</svg>
